scenes/runner/img/plat-short-2.svg

<svg xmlns="http://www.w3.org/2000/svg" viewBox="0 0 392 270"><path fill="#78909C" d="M27 24h340v246H27z"/><path fill="#231F20" d="M27 24h340v22H27z" opacity=".1"/><path fill="#D7D7D7" d="M102 134h70v6h-70zm120 0h70v6h-70zm-120 90h70v6h-70zm120 0h70v6h-70z"/><path d="M107 165h27v27h-27zm33 0h27v27h-27zm-33 32h27v27h-27zm33 0h27v27h-27z" opacity=".3" fill="#fff"/><path d="M227 165h27v27h-27zm33 0h27v27h-27zm-33 32h27v27h-27zm33 0h27v27h-27z" opacity=".1" fill="#fff"/><path fill="#B0BEC5" d="M107 75h27v27h-27zm33 0h27v27h-27zm-33 32h27v27h-27zm33 0h27v27h-27z"/><path fill="#546E7A" d="M227 75h27v27h-27zm33 0h27v27h-27zm-33 32h27v27h-27zm33 0h27v27h-27zm-153 58h27v27h-27zm33 0h27v27h-27zm-33 32h27v27h-27zm33 0h27v27h-27z"/><path fill="#B0BEC5" d="M254 192h-27v-27h27v27zm6-27v27h27v-27h-27zm-6 32h-27v27h27v-27zm6 0v27h27v-27h-27z"/><g fill="#fff"><path d="M248.2 230c0 4.5-3.6 8.1-8.1 8.1s-8.1-3.6-8.1-8.1h16.2z"/><path d="M240.1 239.1c-5 0-9.1-4.1-9.1-9.1 0-.6.4-1 1-1h16.2c.6 0 1 .4 1 1 0 5-4.1 9.1-9.1 9.1zm-7-8.1c.5 3.4 3.4 6.1 7 6.1s6.5-2.7 7-6.1h-14z"/><path d="M264.4 230c0 4.5-3.6 8.1-8.1 8.1s-8.1-3.6-8.1-8.1h16.2z"/><path d="M256.3 239.1c-5 0-9.1-4.1-9.1-9.1 0-.6.4-1 1-1h16.2c.6 0 1 .4 1 1 0 5-4.1 9.1-9.1 9.1zm-7.1-8.1c.5 3.4 3.4 6.1 7 6.1s6.5-2.7 7-6.1h-14z"/><path d="M280.5 230c0 4.5-3.6 8.1-8.1 8.1s-8.1-3.6-8.1-8.1h16.2z"/><path d="M272.4 239.1c-5 0-9.1-4.1-9.1-9.1 0-.6.4-1 1-1h16.2c.6 0 1 .4 1 1 0 5-4 9.1-9.1 9.1zm-7-8.1c.5 3.4 3.4 6.1 7 6.1s6.5-2.7 7-6.1h-14z"/></g><path fill="#231F20" d="M27 24v54l340 20V24z" opacity=".1"/><g fill="#fff"><path d="M20.6 42c0 4-3.6 8.1-8.1 8.1S4.4 46 4.4 42h16.2z"/><path d="M12.6 51.1c-5.2 0-9.1-4.8-9.1-9.1 0-.6.4-1 1-1h16.2c.6 0 1 .4 1 1-.1 4.3-3.9 9.1-9.1 9.1zm-7-8.1c.5 3 3.3 6.1 7 6.1s6.5-3 7-6.1h-14z"/></g><g fill="#fff"><path d="M36.8 42c0 4-3.6 8.1-8.1 8.1S20.6 46 20.6 42h16.2z"/><path d="M28.7 51.1c-5.2 0-9.1-4.8-9.1-9.1 0-.6.4-1 1-1h16.2c.6 0 1 .4 1 1 0 4.3-3.9 9.1-9.1 9.1zm-7-8.1c.5 3 3.3 6.1 7 6.1s6.5-3 7-6.1h-14z"/></g><g fill="#fff"><path d="M179 42c0 4-3.6 8.1-8.1 8.1s-8.1-4.1-8.1-8.1H179z"/><path d="M170.9 51.1c-5.2 0-9.1-4.8-9.1-9.1 0-.6.4-1 1-1H179c.6 0 1 .4 1 1 0 4.3-3.9 9.1-9.1 9.1zm-7-8.1c.5 3 3.3 6.1 7 6.1s6.5-3 7-6.1h-14z"/></g><g fill="#fff"><path d="M288.9 42c0 4-3.6 8.1-8.1 8.1s-8.1-4.1-8.1-8.1h16.2z"/><path d="M280.8 51.1c-5.2 0-9.1-4.8-9.1-9.1 0-.6.4-1 1-1h16.2c.6 0 1 .4 1 1 0 4.3-3.9 9.1-9.1 9.1zm-7-8.1c.5 3 3.3 6.1 7 6.1s6.5-3 7-6.1h-14z"/></g><g fill="#fff"><path d="M305.1 42c0 4-3.6 8.1-8.1 8.1s-8.1-4.1-8.1-8.1h16.2z"/><path d="M297 51.1c-5.2 0-9.1-4.8-9.1-9.1 0-.6.4-1 1-1h16.2c.6 0 1 .4 1 1 0 4.3-3.9 9.1-9.1 9.1zm-7-8.1c.5 3 3.3 6.1 7 6.1s6.5-3 7-6.1h-14z"/></g><g fill="#fff"><path d="M356.9 42c0 4-3.6 8.1-8.1 8.1s-8.1-4.1-8.1-8.1h16.2z"/><path d="M348.8 51.1c-5.2 0-9.1-4.8-9.1-9.1 0-.6.4-1 1-1h16.2c.6 0 1 .4 1 1 0 4.3-3.9 9.1-9.1 9.1zm-7-8.1c.5 3 3.3 6.1 7 6.1s6.5-3 7-6.1h-14z"/></g><g fill="#fff"><path d="M373.1 42c0 4-3.6 8.1-8.1 8.1s-8.1-4.1-8.1-8.1h16.2z"/><path d="M365 51.1c-5.2 0-9.1-4.8-9.1-9.1 0-.6.4-1 1-1h16.2c.6 0 1 .4 1 1 0 4.3-3.9 9.1-9.1 9.1zm-7-8.1c.5 3 3.3 6.1 7 6.1s6.5-3 7-6.1h-14z"/></g><g fill="#fff"><path d="M389.3 42c0 4-3.6 8.1-8.1 8.1s-8.1-4.1-8.1-8.1h16.2z"/><path d="M381.2 51.1c-5.2 0-9.1-4.8-9.1-9.1 0-.6.4-1 1-1h16.2c.6 0 1 .4 1 1 0 4.3-3.9 9.1-9.1 9.1zm-7-8.1c.5 3 3.3 6.1 7 6.1s6.5-3 7-6.1h-14z"/></g><path fill="#00ACC1" d="M390 41V9c0-4.4-3.6-8-8-8H10C5.6 1 2 4.6 2 9v32h388z"/><path fill="#231F20" d="M362 1h4v40h-4zm-28 0h4v40h-4zm-28 0h4v40h-4zm-28 0h4v40h-4zm-28 0h4v40h-4zm-28 0h4v40h-4zm-28 0h4v40h-4zm-28 0h4v40h-4zm-28 0h4v40h-4zm-28 0h4v40h-4zM82 1h4v40h-4zM54 1h4v40h-4zM26 1h4v40h-4z" opacity=".1"/><path fill="none" d="M0 0h392v270H0z"/></svg>

<?xml version="1.0" encoding="utf-8"?>
<!-- Generator: Adobe Illustrator 21.0.0, SVG Export Plug-In . SVG Version: 6.00 Build 0)  -->
<svg version="1.1" id="Layer_1" xmlns="http://www.w3.org/2000/svg" xmlns:xlink="http://www.w3.org/1999/xlink" x="0px" y="0px"
	 viewBox="0 0 442 270" style="enable-background:new 0 0 442 270;" xml:space="preserve">
<style type="text/css">
	.st0{fill:#21586D;}
	.st1{opacity:0.1;}
	.st2{fill:#231F20;}
	.st3{fill:#D7D7D7;}
	.st4{opacity:0.3;}
	.st5{fill:#FFFFFF;}
	.st6{fill:#2D6175;}
	.st7{fill:#0C485F;}
	.st8{opacity:0.2;enable-background:new    ;}
	.st9{fill:#00ACC1;}
	.st10{fill:#0094A2;}
	.st11{opacity:0.39;}
	.st12{fill:#78D3DE;}
	.st13{fill:none;}
</style>
<g>
	<rect x="27" y="24" class="st0" width="340" height="246"/>
</g>
<g class="st1">
	<g>
		<rect x="27" y="24" class="st2" width="340" height="22"/>
	</g>
</g>
<g>
	<rect x="102" y="134" class="st3" width="70" height="6"/>
</g>
<g>
	<rect x="222" y="134" class="st3" width="70" height="6"/>
</g>
<g>
	<rect x="102" y="224" class="st3" width="70" height="6"/>
</g>
<g>
	<rect x="222" y="224" class="st3" width="70" height="6"/>
</g>
<g class="st4">
	<g>
		<rect x="107" y="165" class="st5" width="27" height="27"/>
	</g>
	<g>
		<rect x="140" y="165" class="st5" width="27" height="27"/>
	</g>
	<g>
		<rect x="107" y="197" class="st5" width="27" height="27"/>
	</g>
	<g>
		<rect x="140" y="197" class="st5" width="27" height="27"/>
	</g>
</g>
<g class="st1">
	<g>
		<rect x="227" y="165" class="st5" width="27" height="27"/>
	</g>
	<g>
		<rect x="260" y="165" class="st5" width="27" height="27"/>
	</g>
	<g>
		<rect x="227" y="197" class="st5" width="27" height="27"/>
	</g>
	<g>
		<rect x="260" y="197" class="st5" width="27" height="27"/>
	</g>
</g>
<g>
	<g>
		<rect x="107" y="75" class="st6" width="27" height="27"/>
	</g>
	<g>
		<rect x="140" y="75" class="st6" width="27" height="27"/>
	</g>
	<g>
		<rect x="107" y="107" class="st6" width="27" height="27"/>
	</g>
	<g>
		<rect x="140" y="107" class="st6" width="27" height="27"/>
	</g>
</g>
<g>
	<g>
		<rect x="227" y="75" class="st7" width="27" height="27"/>
	</g>
	<g>
		<rect x="260" y="75" class="st7" width="27" height="27"/>
	</g>
	<g>
		<rect x="227" y="107" class="st7" width="27" height="27"/>
	</g>
	<g>
		<rect x="260" y="107" class="st7" width="27" height="27"/>
	</g>
</g>
<g>
	<g>
		<rect x="107" y="165" class="st7" width="27" height="27"/>
	</g>
	<g>
		<rect x="140" y="165" class="st7" width="27" height="27"/>
	</g>
	<g>
		<rect x="107" y="197" class="st7" width="27" height="27"/>
	</g>
	<g>
		<rect x="140" y="197" class="st7" width="27" height="27"/>
	</g>
</g>
<g>
	<path class="st6" d="M254,192h-27v-27h27V192z M260,165v27h27v-27H260z M254,197h-27v27h27V197z M260,197v27h27v-27H260z"/>
</g>
<g>
	<g>
		<path class="st5" d="M248.2,230c0,4.5-3.6,8.1-8.1,8.1s-8.1-3.6-8.1-8.1H248.2z"/>
		<path class="st5" d="M240.1,239.1c-5,0-9.1-4.1-9.1-9.1c0-0.6,0.4-1,1-1h16.2c0.6,0,1,0.4,1,1C249.2,235,245.1,239.1,240.1,239.1z
			 M233.1,231c0.5,3.4,3.4,6.1,7,6.1s6.5-2.7,7-6.1H233.1z"/>
	</g>
	<g>
		<path class="st5" d="M264.4,230c0,4.5-3.6,8.1-8.1,8.1s-8.1-3.6-8.1-8.1H264.4z"/>
		<path class="st5" d="M256.3,239.1c-5,0-9.1-4.1-9.1-9.1c0-0.6,0.4-1,1-1h16.2c0.6,0,1,0.4,1,1C265.4,235,261.3,239.1,256.3,239.1z
			 M249.2,231c0.5,3.4,3.4,6.1,7,6.1s6.5-2.7,7-6.1H249.2z"/>
	</g>
	<g>
		<path class="st5" d="M280.5,230c0,4.5-3.6,8.1-8.1,8.1s-8.1-3.6-8.1-8.1H280.5z"/>
		<path class="st5" d="M272.4,239.1c-5,0-9.1-4.1-9.1-9.1c0-0.6,0.4-1,1-1h16.2c0.6,0,1,0.4,1,1C281.5,235,277.5,239.1,272.4,239.1z
			 M265.4,231c0.5,3.4,3.4,6.1,7,6.1s6.5-2.7,7-6.1H265.4z"/>
	</g>
</g>
<g>
	<path class="st5" d="M20.6,42c0,4-3.6,8.1-8.1,8.1S4.4,46,4.4,42H20.6z"/>
	<path class="st5" d="M12.6,51.1c-5.2,0-9.1-4.8-9.1-9.1c0-0.6,0.4-1,1-1h16.2c0.6,0,1,0.4,1,1C21.6,46.3,17.8,51.1,12.6,51.1z
		 M5.6,43c0.5,3,3.3,6.1,7,6.1c3.7,0,6.5-3,7-6.1H5.6z"/>
</g>
<g>
	<path class="st5" d="M36.8,42c0,4-3.6,8.1-8.1,8.1S20.6,46,20.6,42H36.8z"/>
	<path class="st5" d="M28.7,51.1c-5.2,0-9.1-4.8-9.1-9.1c0-0.6,0.4-1,1-1h16.2c0.6,0,1,0.4,1,1C37.8,46.3,33.9,51.1,28.7,51.1z
		 M21.7,43c0.5,3,3.3,6.1,7,6.1s6.5-3,7-6.1H21.7z"/>
</g>
<g>
	<path class="st5" d="M179,42c0,4-3.6,8.1-8.1,8.1s-8.1-4.1-8.1-8.1H179z"/>
	<path class="st5" d="M170.9,51.1c-5.2,0-9.1-4.8-9.1-9.1c0-0.6,0.4-1,1-1H179c0.6,0,1,0.4,1,1C180,46.3,176.1,51.1,170.9,51.1z
		 M163.9,43c0.5,3,3.3,6.1,7,6.1s6.5-3,7-6.1H163.9z"/>
</g>
<g>
	<path class="st5" d="M288.9,42c0,4-3.6,8.1-8.1,8.1s-8.1-4.1-8.1-8.1H288.9z"/>
	<path class="st5" d="M280.8,51.1c-5.2,0-9.1-4.8-9.1-9.1c0-0.6,0.4-1,1-1h16.2c0.6,0,1,0.4,1,1C289.9,46.3,286,51.1,280.8,51.1z
		 M273.8,43c0.5,3,3.3,6.1,7,6.1s6.5-3,7-6.1H273.8z"/>
</g>
<g>
	<path class="st5" d="M305.1,42c0,4-3.6,8.1-8.1,8.1s-8.1-4.1-8.1-8.1H305.1z"/>
	<path class="st5" d="M297,51.1c-5.2,0-9.1-4.8-9.1-9.1c0-0.6,0.4-1,1-1h16.2c0.6,0,1,0.4,1,1C306.1,46.3,302.2,51.1,297,51.1z
		 M290,43c0.5,3,3.3,6.1,7,6.1s6.5-3,7-6.1H290z"/>
</g>
<g>
	<path class="st5" d="M356.9,42c0,4-3.6,8.1-8.1,8.1s-8.1-4.1-8.1-8.1H356.9z"/>
	<path class="st5" d="M348.8,51.1c-5.2,0-9.1-4.8-9.1-9.1c0-0.6,0.4-1,1-1h16.2c0.6,0,1,0.4,1,1C357.9,46.3,354,51.1,348.8,51.1z
		 M341.8,43c0.5,3,3.3,6.1,7,6.1s6.5-3,7-6.1H341.8z"/>
</g>
<g>
	<path class="st5" d="M373.1,42c0,4-3.6,8.1-8.1,8.1s-8.1-4.1-8.1-8.1H373.1z"/>
	<path class="st5" d="M365,51.1c-5.2,0-9.1-4.8-9.1-9.1c0-0.6,0.4-1,1-1h16.2c0.6,0,1,0.4,1,1C374.1,46.3,370.2,51.1,365,51.1z
		 M358,43c0.5,3,3.3,6.1,7,6.1s6.5-3,7-6.1H358z"/>
</g>
<g>
	<path class="st5" d="M389.3,42c0,4-3.6,8.1-8.1,8.1s-8.1-4.1-8.1-8.1H389.3z"/>
	<path class="st5" d="M381.2,51.1c-5.2,0-9.1-4.8-9.1-9.1c0-0.6,0.4-1,1-1h16.2c0.6,0,1,0.4,1,1C390.3,46.3,386.4,51.1,381.2,51.1z
		 M374.2,43c0.5,3,3.3,6.1,7,6.1s6.5-3,7-6.1H374.2z"/>
</g>
<g>
	<path class="st8" d="M69,78.5h-8L2,40V8c0-4.4,4.6-7,9-7h368c9.2,0,55.3,31.6,55.3,31.6c1.8,1.2,2.7,3.2,2.7,5.9v40h-8H69z"/>
	<g>
		<path class="st9" d="M390,41V9c0-4.4-3.6-8-8-8H10C5.6,1,2,4.6,2,9v32H390z"/>
	</g>
	<g>
		<path class="st10" d="M393,43V11c0-4.4-3.6-8-8-8H13c-4.4,0-8,3.6-8,8L2,41l3,2H393z"/>
	</g>
	<g>
		<path class="st9" d="M390,41V9c0-4.4-3.6-8-8-8H10C5.6,1,2,4.6,2,9v32H390z"/>
	</g>
	<g class="st11">
		<path class="st12" d="M388.6,4.4C387.3,3.5,385.7,3,384,3H12c-4.4,0-8,3.6-8,8v30H2V9c0-4.4,3.6-8,8-8h372
			C384.7,1,387.1,2.4,388.6,4.4z"/>
	</g>
	<g class="st1">
		<g>
			<rect x="362" y="1" class="st2" width="4" height="40"/>
		</g>
	</g>
	<g class="st1">
		<g>
			<rect x="334" y="1" class="st2" width="4" height="40"/>
		</g>
	</g>
	<g class="st1">
		<g>
			<rect x="306" y="1" class="st2" width="4" height="40"/>
		</g>
	</g>
	<g class="st1">
		<g>
			<rect x="278" y="1" class="st2" width="4" height="40"/>
		</g>
	</g>
	<g class="st1">
		<g>
			<rect x="250" y="1" class="st2" width="4" height="40"/>
		</g>
	</g>
	<g class="st1">
		<g>
			<rect x="222" y="1" class="st2" width="4" height="40"/>
		</g>
	</g>
	<g class="st1">
		<g>
			<rect x="194" y="1" class="st2" width="4" height="40"/>
		</g>
	</g>
	<g class="st1">
		<g>
			<rect x="166" y="1" class="st2" width="4" height="40"/>
		</g>
	</g>
	<g class="st1">
		<g>
			<rect x="138" y="1" class="st2" width="4" height="40"/>
		</g>
	</g>
	<g class="st1">
		<g>
			<rect x="110" y="1" class="st2" width="4" height="40"/>
		</g>
	</g>
	<g class="st1">
		<g>
			<rect x="82" y="1" class="st2" width="4" height="40"/>
		</g>
	</g>
	<g class="st1">
		<g>
			<rect x="54" y="1" class="st2" width="4" height="40"/>
		</g>
	</g>
	<g class="st1">
		<g>
			<rect x="26" y="1" class="st2" width="4" height="40"/>
		</g>
	</g>
</g>
<g>
	<rect class="st13" width="392" height="270"/>
</g>
</svg>
